packages/storefront-lwc/src/assets/fonts/flags/4x3/cw.svg

<svg height="480" width="640" xmlns="http://www.w3.org/2000/svg" xmlns:xlink="http://www.w3.org/1999/xlink"><defs><path id="a" d="m0-1 .225.69h.725l-.586.43.225.69-.589-.427-.588.427.225-.692-.587-.428h.725z"/><clipPath id="b"><path d="m0 0h682.67v512h-682.67z"/></clipPath></defs><g clip-path="url(#b)" transform="scale(.94)"><path d="m0 0h768v512h-768z" fill="#002b7f"/><path d="m0 320h768v64h-768z" fill="#f9e814"/><g fill="#fff"><use height="9000" transform="scale(42.67)" width="13500" x="2" xlink:href="#a" y="2"/><use height="9000" transform="scale(56.9)" width="13500" x="3" xlink:href="#a" y="3"/></g></g></svg>

<svg xmlns="http://www.w3.org/2000/svg" xmlns:xlink="http://www.w3.org/1999/xlink" height="480" width="640" id="flag-icon-css-cw">
  <defs>
    <path id="b" d="M0-1l.225.69H.95L.364.12l.225.69L0 .383-.588.81l.225-.692L-.95-.31h.725z"/>
    <clipPath id="a">
      <path fill-opacity=".67" d="M0 0h682.67v512H0z"/>
    </clipPath>
  </defs>
  <g clip-path="url(#a)" transform="scale(.94)">
    <path fill="#002b7f" d="M0 0h768v512H0z"/>
    <path fill="#f9e814" d="M0 320h768v64H0z"/>
    <use xlink:href="#b" transform="scale(42.67)" height="9000" width="13500" y="2" x="2" fill="#fff"/>
    <use xlink:href="#b" transform="scale(56.9)" height="9000" width="13500" y="3" x="3" fill="#fff"/>
  </g>
</svg>
